X:1
T:Title
%%score { 1 | ( 2 3 ) }
L:1/8
Q:1/4=100
M:3/4
K:F
V:1 treble nm="Grand Piano"
V:2 treble 
V:3 treble 
V:1
 A>B c2 B2 | A2 [EG]2 z2 | [DF]>[DF] [EG]2 [Gc]2 | A4 z2 | d3 c BA | c3 B A[DG] | %6
w: N�geli * * *||||||
 [CF]2 [FA]2 [B,EG]2 | [A,CF]4 z2 |] %8
w: ||
V:2
 [F,CF]>[G,CE] [A,CF]2 [B,DG]2 | [CF]2[K:bass] [C,C]2 z2 | [D,A,]>[D,A,] [C,C]2 [E,C]2 | %3
 [F,CF]4 z2 | [B,F]3 [A,CF] [G,CE][F,CF] | [A,CF]3[K:bass] [G,CE] [F,CF][B,,B,] | A,2 C2 C,2 | %7
 F,,4 z2 |] %8
V:3
 x6 | x2[K:bass] x4 | x6 | x6 | x6 | x3[K:bass] x3 | C,4 z2 | x6 |] %8

